X:131
T:Warwick Court
M:2/4
L:1/8
B:Thompson's Compleat Collection of 200 Favourite Country Dances, vol. 3 (London, 1773)
Z:Transcribed and edited by Flynn Titford-Mock, 2007
Z:abc's:AK/Fiddler's Companion
K:A
E | A e2 c | d f2 B | G B2 G | A[Ec][Ce][A,a] | A e2 c | G B2 d | cAGF | E3 :|
|: B | GEBE | D B2 D | [Cc] A2 [Cc] | [B,B]DGB | FdEc | DB[Cc]f | edcB | A3 :|

